icons/mov.svg

<svg width="16" height="16" viewBox="0 0 16 16" fill="none" xmlns="http://www.w3.org/2000/svg">
<path fill-rule="evenodd" clip-rule="evenodd" d="M12.6083 4.15745C11.8238 3.2176 10.7571 2.52143 9.53851 2.19907L9.78064 7.18709L12.6083 4.15745ZM5.08165 2.75631C5.94547 2.27453 6.94068 2 8 2C8.187 2 8.37199 2.00855 8.55462 2.02529L8.73548 6.06452L5.08165 2.75631ZM2.25783 6.25458C2.60981 5.0951 3.30336 4.08423 4.22133 3.33909L7.1871 5.9871L2.25783 6.25458ZM2.67241 10.7625C2.24278 9.9357 2 8.9962 2 8C2 7.74637 2.01574 7.49641 2.04629 7.25106L5.94839 7.07096L2.67241 10.7625ZM6.16979 13.7157C4.96697 13.3309 3.92925 12.5769 3.18988 11.5871L5.90968 8.65807L6.16979 13.7157ZM10.8673 13.2718C10.0154 13.7361 9.03853 14 8 14C7.72632 14 7.45693 13.9817 7.19297 13.9462L6.99355 9.85806L10.8673 13.2718ZM13.7939 9.56475C13.4542 10.8257 12.7139 11.9223 11.7178 12.7097L8.54193 9.89677L13.7939 9.56475ZM13.1574 4.93197C13.6925 5.82969 14 6.87894 14 8C14 8.20927 13.9893 8.41604 13.9684 8.61978L9.66452 8.8129L13.1574 4.93197Z" fill="#4ED1BA"/>
</svg>

<svg xmlns="http://www.w3.org/2000/svg" width="16" height="16" fill="none"><path fill="#4ED1BA" fill-rule="evenodd" d="M12.608 4.157A6.002 6.002 0 0 0 9.538 2.2l.243 4.988 2.827-3.03Zm-7.526-1.4a5.973 5.973 0 0 1 3.473-.732l.18 4.04-3.653-3.309ZM2.258 6.254A6.007 6.007 0 0 1 4.22 3.339l2.966 2.648-4.93.268Zm.414 4.507a5.974 5.974 0 0 1-.626-3.51l3.902-.181-3.276 3.691Zm3.498 2.954a6.012 6.012 0 0 1-2.98-2.129l2.72-2.929.26 5.058Zm4.697-.444a5.973 5.973 0 0 1-3.674.674l-.2-4.088 3.874 3.414Zm2.927-3.707a6.005 6.005 0 0 1-2.076 3.145L8.542 9.897l5.252-.332Zm-.637-4.633a5.973 5.973 0 0 1 .811 3.688l-4.303.193 3.492-3.881Z" clip-rule="evenodd"/></svg>
